!!!OTL@@DE: Mignon
!!!COM: Himmel, Friedrich Heinrich
!!!CDT: -1814///
!!!OMD: Andante
!!!LYR: Goethe, Joh. Wolfgang von
!!!LDT: 1782
!!!OCL: Erk, Ludwig
!!!GCO: Deutscher Liederschatz, Band 1
**kern	**kern	**kern
*staff3	*staff2	*staff1
*Ipiano	*Ipiano	*Ivox
*clefF4	*clefG2	*clefG2
*k[f#c#]	*k[f#c#]	*k[f#c#]
*D:	*D:	*D:
*met(C)	*met(C)	*met(C)
*M4/4	*M4/4	*M4/4
*MM92	*MM92	*MM92
8r	8r	8f#/
4r	4r	8f#/
.	.	8g/
=1	=1	=1
2D\	8r	4.a/
.	(8A/L	.
.	8d/ 8f#/	.
.	8A/J)	8a/
2F#\	8r	8.dd\
.	(8A/L	.
.	.	16cc#\
.	8d/ 8a/	8b\
.	8A/J)	8a/
=2	=2	=2
2E\	8r	(4a/
.	8A/L	.
.	8c#/ 8g/	4g/)
.	8A/J	.
2AA/	8r	8r
.	8A/L	8cc#\
.	8c#/ 8g/	8cc#\
.	8A/J	8dd\
=3	=3	=3
2AAA/	8r	4.ee\
.	8A/L	.
.	8c#/ 8g/	.
.	8A/J	8cc#\
2AA/	8r	8a/
.	8A/L	8b\
.	8c#/ 8e/	8e/
.	8A/J	8g/
=4	=4	=4
2DD/	8r	(4g/
.	8A/L	.
.	8d/ 8f#/	4f#/)
.	8A/J	.
2D\	8r	8r
.	8A/L	8dd\
.	8f#/ 8a/	8dd\
.	8A/J	8cc#\
=5	=5	=5
2E\	8r	4.b\
.	8e/L	.
.	8d/ 8g#/	.
.	8e/J	8b\
2D\	8r	8b\
.	8e/L	8a#/
.	8B/ 8g#/	8b\
.	8e/J	8cc#\
=6	=6	=6
2C#/	8r	(4b\
.	8e/L	.
.	8A/ 8a/	4an/)
.	8e/J	.
2AA/	8r	8r
.	8e/L	8a/
.	8c#/ 8a/	8cc#\
.	8e/J	8a/
=7	=7	=7
2D\	8r	4.dd\
.	8f#/L	.
.	8d/ 8b/	.
.	8f#/J	8b\
2E\	8r	8g#/
.	8e/L	8e/
.	8B/ 8d/	8f#/
.	8e/J	8g#/
=8	=8	=8
8AA'/L	2c#/ 2e/ 2a/	2a/
(8E/	.	.
8D/	.	.
8E/J)	.	.
2A\	8r	8r
.	8e/ 8gn/L	8gn/
.	(8e/ 8g/	8g/
.	8c#/) 8a/J	8a/
=9	=9	=9
8DD'/L	2d/ 2f#/	2f#/
(8AA/	.	.
8GG#/	.	.
8AA/J)	.	.
2D\	4r	4r
.	4F#'/ 4A'/ 4cn'/ 4d'/	4d/
=10	=10	=10
8GG'\ 8G'\L	2B/ 2d/ 2b/	2b\
(8D\	.	.
8C#\	.	.
8D\J)	.	.
2G\	4r	4r
.	4B/ 4d/ 4g/	4g/
=11	=11	=11
8AA'/L	2g/ 2a/ 2cc#/	2cc#\
(8E/	.	.
8D/	.	.
8E/J)	.	.
2A\	8r	8r
.	(8a/L	8a/
.	8g#/ 8b/	8b\
.	8gn/) 8cc#/J	8cc#\
=12	=12	=12
*^	*	*
8r	2D\	2f#/ [2dd/	[2dd\
(8d/L	.	.	.
8c#/	.	.	.
8cn/J)	.	.	.
(4B/	2G\	8g\ 8dd\L]	8dd\]
.	.	8b\ (8dd\	8dd\
8c#/L	.	8a\ 8cc#\	8cc#\
8d/J)	.	8g\ 8b\J)	8b\
=13	=13	=13	=13
*	*	*^	*
8r	2A\	(4b/	8g\L	(4b\
(8d/L	.	.	8f#\	.
8c#/	.	2a/)	8e\	2a/)
8d/J)	.	.	8f#\J	.
2r	2AA/	.	8g\L	.
.	.	.	8A\	.
.	.	4c#/	8G\	4c#/
.	.	.	8A\J	.
*v	*v	*	*	*
=14	=14	=14	=14
[2DD/ [2AA/ 2D/	[2d/	8F#\L	2d/
.	.	8A\	.
.	.	8F#\	.
.	.	8A\J	.
8DD/] 8AA/] 8D/	8d/]	8F#\	8r
*	*v	*v	*
==	==	==
*-	*-	*-
!!!ENC: Craig Stuart Sapp
!!!END: 2004/06/03/
!!!EFL: 067/651
